!!!COM:	Japart, Jean
!!!CDT:	~1450//-~1507//
!!!OTL:	Nenciozza mia
!!!AGN:	Song; Chanson
!!!SCT:	Jap3015
!!!SCA:	Jap3015
!!!voices:	4
**kern	**kern	**kern	**kern
*staff4	*staff3	*staff2	*staff1
*Ivox	*Ivox	*Ivox	*Ivox
*I"Bassus	*I"Tenor	*I"Altus	*I"Discantus
*I'B	*I'T	*I'A	*I'D
*clefF4	*clefF4	*clefGv2	*clefG2
*k[b-]	*k[b-]	*k[b-]	*k[b-]
*M2/1	*M2/1	*M2/1	*M2/1
*met(C|)	*met(C|)	*met(C|)	*met(C|)
=1-	=1-	=1-	=1-
0FF	0r	1F	1.f
.	.	1A	.
.	.	.	2e
=2	=2	=2	=2
1GG	0r	1B-	1d
1AA	.	1c	1c
=3	=3	=3	=3
1BB-	1F	2F	1.d
.	.	1B-	.
[1GG	[1G	.	.
.	.	2A	2c
=4	=4	=4	=4
0GG]	2G]	2G	2B-
.	2F	1c	2A
.	2E	.	1G
.	2D	2Bni	.
=5	=5	=5	=5
2AA	1C	1.c	1r
2FF	.	.	.
2.AA	2C	.	[1c
.	[2E	4B-	.
4BB-	.	4A	.
=6	=6	=6	=6
1C	2E]	1G	2c]
.	2E	.	2.c
2FF	[1F	1F	.
.	.	.	4A
[2BB-	.	.	[2d
=7	=7	=7	=7
2BB-]	2F]	1r	4d]
.	.	.	4c
2C	2E	.	1c
1GG	1D	[1G	.
.	.	.	2Bni
=8	=8	=8	=8
1C	1C	2G]	1c
.	.	2.c	.
1D	1r	.	1f
.	.	4Bni	.
.	.	4Bni	.
.	.	4A	.
=9	=9	=9	=9
1C	1E	1c	1g
2r	[1F	2A	[1a
2FF	.	[2c	.
=10	=10	=10	=10
1FF	2F]	1c]	1a]
.	2E	.	.
1GG	2D	2B-	1b-
.	4C	4A	.
.	4BB-	4G	.
=11	=11	=11	=11
1FF	1AA	2.A	2.cc
.	.	4B-	4b-
1r	2AA	2c	4a
.	.	.	4g
.	[2D	[2F	4a
.	.	.	4b-
=12	=12	=12	=12
1F	2D]	4F]	2a
.	.	4G	.
.	2D	4A	4g
.	.	4B-	4f
2G	1C	1c	1e
[2A	.	.	.
=13	=13	=13	=13
4A]	2AA	1r	1r
4G	.	.	.
1F	2BB-	.	.
.	1GG	1B-	1g
2E	.	.	.
=14	=14	=14	=14
2.F	1FF	1A	1a
4E	.	.	.
4D	1r	2A	1f
4C	.	.	.
[2BB-	.	[2d	.
=15	=15	=15	=15
4BB-]	0r	2d]	1b-
4C	.	.	.
4D	.	2d	.
4E	.	.	.
2F	.	1c	2a
2C	.	.	[2g
=16	=16	=16	=16
2F	0r	2A	4g]
.	.	.	4f
2BB-	.	2B-	1f
1C	.	1G	.
.	.	.	2e
=17	=17	=17	=17
!	!	!LO:TX:Z=8:t=SC	!
2.D	0r	[0F	2.f
4C	.	.	4e
2BB-	.	.	2d
[2AA	.	.	[2c
=18	=18	=18	=18
4AA]	1C	0F_	4c]
4GG	.	.	4B-
2FF	.	.	2A
1BB-	1D	.	1B-
=19	=19	=19	=19
!LO:TX:Z=8:t=SC	!LO:TX:Z=8:t=SC	!	!LO:TX:Z=8:t=SC
1FF	1C	1F]	1A
1r	1r	1r	1r
=20	=20	=20	=20
1FF	1F	1c	0r
2GG	2D	2B-	.
2FF	2F	[2A	.
=21	=21	=21	=21
1C	2E	4A]	0r
.	.	4G	.
.	1C	2.G	.
2AA	.	.	.
.	.	4F	.
2BB-	2D	[2F	.
=22	=22	=22	=22
1GG	1BB-	2F]	0r
.	.	2E	.
[1FF	1C	1F	.
=23	=23	=23	=23
2FF]	1.D	0r	0r
1BB-	.	.	.
2C	[2C	.	.
=24	=24	=24	=24
1D	4C]	1r	1f
.	4BB-	.	.
.	2AA	.	.
2BB-	1GG	1B-	[1g
[2E-i	.	.	.
=25	=25	=25	=25
2E-]	1C	1.c	2g]
2D	.	.	2f
1C	1r	.	2e
.	.	2B-	2d
=26	=26	=26	=26
0r	2r	2A	1c
.	2C	2G	.
.	2FF	2F	2c
.	[2C	2G	[2e
=27	=27	=27	=27
0r	1C]	2C	2e]
.	.	2c	2e
.	2D	2A	[1f
.	[2BB-	[2d	.
=28	=28	=28	=28
1r	2BB-]	4d]	2f]
.	.	4c	.
.	2C	1c	2e
1GG	1G	.	1d
.	.	2Bni	.
=29	=29	=29	=29
1AA	1C	1c	1c
2.FF	[1F	[1A	1r
4GG	.	.	.
=30	=30	=30	=30
4AA	2F]	1A]	1c
4BB-	.	.	.
2C	2E	.	.
2BB-	2D	1B-	[1f
4AA	4C	.	.
4GG	4BB-	.	.
=31	=31	=31	=31
1FF	2AA	2c	2f]
.	2C	2A	2e
1GG	2BB-	1B-	2d
.	4AA	.	4c
.	4GG	.	4B-
=32	=32	=32	=32
1AA	2FF	1c	1A
.	2C	.	.
1r	2.D	1F	2A
.	.	.	[2d
.	4E	.	.
=33	=33	=33	=33
0r	2F	0r	2d]
.	2G	.	2d
.	2E	.	1c
.	[2A	.	.
=34	=34	=34	=34
1r	4A]	1r	2A
.	4F	.	.
.	2.G	.	2B-
1C	.	1c	1G
.	4D	.	.
.	2E	.	.
=35	=35	=35	=35
1.F	2F	2A	1F
.	1BB-	1d	.
.	.	.	1r
2E	2C	2c	.
=36	=36	=36	=36
2D	1GG	2B-	0r
4C	.	4A	.
4BB-	.	4G	.
1AA	1r	2F	.
.	.	[2c	.
=37	=37	=37	=37
2AA	0r	4c]	1r
.	.	4A	.
1D	.	2B-	.
.	.	2A	1f
2D	.	4G	.
.	.	4F	.
=38	=38	=38	=38
1C	1r	2E	1g
.	.	1C	.
2AA	1F	.	2a
2BB-	.	[2F	2f
=39	=39	=39	=39
1GG	1G	2F]	1b-
.	.	2E	.
[1FF	1A	2.F	2a
.	.	.	[2cc
.	.	4G	.
=40	=40	=40	=40
2FF]	2F	2A	2cc]
2GG	1B-	1G	2b-
2EE	.	.	2g
[2FF	2A	2F	[2a
=41	=41	=41	=41
1FF]	2F	2C	4a]
.	.	.	4g
.	2A	1.c	1f
1C	1G	.	.
.	.	.	2e
=42	=42	=42	=42
0FFl	0Fl	0cl	0fl
==	==	==	==
*-	*-	*-	*-
!!!RDF**kern: l=long note in original notation
!!!RDF**kern: i=editorial accidental
!!!ENC:	Chris Gage 09-18-2013
!!!END:	2013/10/24/
!!!EED:	Jesse Rodin
!!!EEV:	2013/12/19/
!!!ONB:	Translated from MusicXML and edited on 2013/12/19/ by Craig Sapp
!!muse2ps: C^@{COM}^i2I150v85,85,85,100Q16
